-----BEGIN PGP PUBLIC KEY BLOCK-----

mQINBGp9GYQBEAC+sp/voQRGTaePJnorhzrW0E8mmLji2HShfQANbzcTwZx6eWAF
DbyAQJzMbCdcy8KdNwfLQcx3sVfujht5q0qCjLMXRMVQmboZdf5X10rTC92408jE
BbuKBBuRfVrG0Y3MzYocf9DSP9nS81I4TL0EeeuYkYaXVBoDg542zaZBR1iGeMKi
Rce8kYWAY36VsvEdAKVr/4iRKiULZ9BzazaeNJ3i4eQWAsy6idY00rjerlU9MNCI
6of/18LR6X/UPvrciqzL7nay4QHjvnFHBE/7yjhk3/5DoI2XWkAhCTd7oULWL+9f
tUnpzka4FlSWKggPo3Oa5hsenmZDggXrh9PYrPk1zckBTXu1yMMDaijEou0lIp1N
4SES7IHWBYn1oBGj9QSe9foMaljnMcGLNs61YNNtpVlFOUi+mK7QKI26G7yYs4tr
oBaAWX+Z/TyOS2YCPvkc3iH2iXJuRIA0+gO4Fokeqx6LSDXEtcDLno/DYWgJB5/a
CGnFwNNhAdmXWYiw+GccEmWpKeD3wzTz0DvuQda6HKFuEdMCYRcEDs5AOcwe7uiY
vPcxvHug0KQX7ojNXmL5tENhVPc3a5hRyBwo4rKRDPVFold+34CPDtCX901yYbq6
kJ1ZZQ8BGVCOY57ju/EO/4VXRMoh6oVyDbNHC2ZVIU93CptX6tm0fqh5PwARAQAB
tChiYWNrdXBjdGwgcmVsZWFzZXMgPHJlbGVhc2VzQHNvbG8taXQucnU+iQJtBBMB
CABXFiEET916ff55uog35kwz7byiHNobWeQFAmp9GYQbFIAAAAAABAAObWFudTIs
Mi41KzEuMTIsMCwzAhsDBQsJCAcCAiICBhUKCQgLAgQWAgMBAh4HAheAAAoJEO28
ohzaG1nk2G0P/0iKQJ/H9RsgTjJmNQwqyk1b5zJFVqMYYmCy6fL3Z2Ei2KSN3i7+
uZnl4lW0ZEmvis+5UH2PwsE1WPcafdFA/uXPm7mKKsX3huBAh6tjp2ZBilN1R+V8
PM/FiOODFph0KDXTMujfmg/fexW3zLCV9/EiasBLW4gUPsSWuxnRSxU9M3KVPxfs
jRs3DgfCA6+HpZmI2MIxSrzMS1crPllWqZmkES1MtVjK7+yWoPO1bnL0n3P+3HOz
yUppJIxtcf7i/jFWQKoUe1fZo7lRZwKyrqeFTZXa5tbn50v9NILYON99SJ4g6+Jv
iNZNUxTKu1VkUlbruACCD8VWxWaTuPTkbDtdvXk6PHLwgY1sG/ZSvXHI7mODTs3z
VHG3M9f6QvMiNeqnM0zDb1MFGEl2n9rVCVcOw2W8A4bTsL7nniy83JsIGm0reV5n
1okIQnD52VO6k1G73yreU3PJQB8Nqs8UmYnp8Pt+UBzAAbXzu5XflPn5QtskxU9M
ti4tue9d+AsStUsRWSawFbFg/aoarBSgAs1SE6FNwr8Bt7hY0tj+9gJCJr7wjNFT
BJdlqOAQxGF6ITDyhaAxhKkqoz+cw0jctt4Uf4IDc//onYff0msazPM2KhwkK+dH
Rzer9xCpfD6oFBxeIwOBFiOVEafY/x+fRDKeWCQZmtYBRTRSQawg/WCc
=aLkT
-----END PGP PUBLIC KEY BLOCK-----
